images/Client 3.svg

<svg width="170" height="92" viewBox="0 0 170 92" fill="none" xmlns="http://www.w3.org/2000/svg">
<rect x="0.5" y="0.5" width="169" height="91" rx="3.5" stroke="#AFB1B8"/>
<path d="M68.4063 65.1014C68.4222 65.1018 68.4379 65.1049 68.4524 65.1106C68.4669 65.1163 68.4799 65.1245 68.4908 65.1346L68.7089 65.3431C68.5396 65.5118 68.3304 65.6468 68.0955 65.7388C67.8204 65.8391 67.5239 65.8875 67.2257 65.8809C66.9455 65.8859 66.6671 65.8408 66.4078 65.7482C66.1739 65.6632 65.9638 65.5356 65.7916 65.3739C65.6159 65.2062 65.4805 65.0096 65.3935 64.7958C65.2982 64.5574 65.2512 64.3065 65.2545 64.0542C65.2506 63.8003 65.3015 63.548 65.4044 63.3103C65.4997 63.0951 65.6433 62.8986 65.827 62.7322C66.0132 62.5691 66.2359 62.4408 66.4814 62.3555C66.7499 62.265 67.0359 62.22 67.3239 62.2228C67.5914 62.2172 67.8575 62.2582 68.1064 62.3436C68.3223 62.425 68.5206 62.538 68.6926 62.6777L68.5099 62.9004C68.4973 62.9161 68.4816 62.9297 68.4635 62.9407C68.442 62.9535 68.4159 62.9594 68.3899 62.9573C68.3616 62.9556 68.3343 62.9474 68.3109 62.9336L68.2127 62.8743L68.0764 62.7985C68.0175 62.7704 67.9565 62.7458 67.8937 62.7251C67.8128 62.6999 67.7299 62.6801 67.6456 62.6659C67.5386 62.6487 67.4299 62.6408 67.3211 62.6422C67.1138 62.6399 66.908 62.6737 66.7159 62.7417C66.5367 62.8046 66.375 62.8999 66.2415 63.0212C66.1055 63.1503 66.0007 63.3018 65.9334 63.4667C65.8566 63.6553 65.8187 63.8542 65.8216 64.0542C65.8183 64.2574 65.8561 64.4595 65.9334 64.6513C65.9999 64.8147 66.1027 64.9653 66.236 65.0943C66.3609 65.2146 66.5157 65.3086 66.6886 65.3692C66.8666 65.4333 67.0576 65.4655 67.2503 65.4639C67.3615 65.4654 67.4728 65.4591 67.5829 65.445C67.7627 65.4259 67.9351 65.3716 68.0873 65.2862C68.1636 65.2425 68.2356 65.1934 68.3027 65.1393C68.3307 65.1161 68.3676 65.1026 68.4063 65.1014Z" fill="#AFB1B8"/>
<path d="M74.7044 64.0538C74.7078 64.3052 74.6579 64.5549 74.5571 64.7906C74.4683 65.0043 74.3283 65.1993 74.1465 65.3626C73.9646 65.526 73.745 65.654 73.502 65.7382C72.9682 65.9151 72.3781 65.9151 71.8443 65.7382C71.603 65.6527 71.3848 65.5244 71.2036 65.3615C71.0219 65.1952 70.8809 64.9986 70.7892 64.7835C70.5928 64.3063 70.5928 63.7847 70.7892 63.3076C70.8822 63.0923 71.023 62.8951 71.2036 62.7271C71.3863 62.5694 71.6044 62.446 71.8443 62.3647C72.3775 62.1846 72.9689 62.1846 73.502 62.3647C73.7442 62.4502 73.9633 62.5784 74.1455 62.7414C74.325 62.906 74.4649 63.1001 74.5571 63.3123C74.6582 63.5495 74.7081 63.8009 74.7044 64.0538ZM74.1318 64.0538C74.1361 63.8527 74.1011 63.6525 74.0282 63.4615C73.9671 63.298 73.8678 63.1472 73.7365 63.0185C73.6087 62.8968 73.4513 62.8013 73.2757 62.739C72.8879 62.6095 72.4585 62.6095 72.0706 62.739C71.8951 62.8013 71.7377 62.8968 71.6099 63.0185C71.4767 63.1464 71.3764 63.2974 71.3154 63.4615C71.1767 63.8472 71.1767 64.2604 71.3154 64.6461C71.377 64.81 71.4773 64.9609 71.6099 65.0891C71.7379 65.2101 71.8953 65.3048 72.0706 65.3663C72.4592 65.4925 72.8872 65.4925 73.2757 65.3663C73.4511 65.3048 73.6085 65.2101 73.7365 65.0891C73.8672 64.9601 73.9665 64.8094 74.0282 64.6461C74.1014 64.4552 74.1364 64.2549 74.1318 64.0538Z" fill="#AFB1B8"/>
<path d="M79.0013 64.6747L79.0586 64.8074C79.0804 64.76 79.0995 64.7173 79.1213 64.6747C79.1421 64.6302 79.1657 64.5867 79.1922 64.5444L80.5854 62.3438C80.6127 62.3059 80.6372 62.2823 80.6645 62.2751C80.7015 62.2653 80.7403 62.2613 80.779 62.2633H81.1907V65.8425H80.7026V63.2108C80.7026 63.1776 80.7026 63.1397 80.7026 63.0995C80.7 63.0585 80.7 63.0173 80.7026 62.9763L79.3012 65.2077C79.2834 65.2411 79.255 65.2694 79.2192 65.2891C79.1834 65.3089 79.1418 65.3192 79.0995 65.319H79.0204C78.9779 65.3195 78.9362 65.3093 78.9004 65.2895C78.8646 65.2697 78.8362 65.2413 78.8186 65.2077L77.3763 62.9621C77.3763 63.0047 77.3763 63.0474 77.3763 63.09C77.3763 63.1326 77.3763 63.1705 77.3763 63.2037V65.8354H76.9047V62.2633H77.3164C77.355 62.2613 77.3938 62.2653 77.4309 62.2751C77.4647 62.2897 77.4916 62.314 77.5072 62.3438L78.9304 64.5468C78.9584 64.5875 78.9821 64.6303 79.0013 64.6747Z" fill="#AFB1B8"/>
<path d="M84.2443 64.4969V65.8376H83.699V62.2632H84.915C85.1446 62.2594 85.3735 62.2857 85.5939 62.3413C85.7704 62.3848 85.9341 62.4607 86.0738 62.564C86.1949 62.6608 86.2883 62.7808 86.3464 62.9146C86.4108 63.0604 86.4423 63.2156 86.4391 63.3717C86.4415 63.5285 86.4072 63.684 86.3383 63.8289C86.2727 63.966 86.172 64.0884 86.0438 64.1866C85.9039 64.2941 85.7395 64.3749 85.5612 64.4234C85.3489 64.4824 85.1269 64.5104 84.9041 64.5063L84.2443 64.4969ZM84.2443 64.1131H84.9041C85.0475 64.1148 85.1901 64.0964 85.3267 64.0587C85.4394 64.0257 85.5433 63.9733 85.6321 63.9047C85.714 63.8391 85.7775 63.7581 85.8175 63.6678C85.8621 63.5723 85.8844 63.4701 85.8829 63.367C85.8893 63.2676 85.8706 63.1683 85.8282 63.0758C85.7859 62.9834 85.7208 62.9 85.6376 62.8317C85.4293 62.6904 85.1676 62.6219 84.9041 62.6398H84.2443V64.1131Z" fill="#AFB1B8"/>
<path d="M91.5731 65.8424H91.1423C91.0991 65.8438 91.0566 65.8321 91.0223 65.8092C90.9914 65.7869 90.9671 65.7585 90.9514 65.7263L90.5806 64.8616H88.7185L88.334 65.7263C88.3199 65.7579 88.2964 65.7857 88.2659 65.8069C88.2312 65.8311 88.1877 65.8437 88.1432 65.8424H87.7124L89.3483 62.2628H89.9154L91.5731 65.8424ZM88.8739 64.5134H90.4116L89.7627 63.0564C89.7131 62.9468 89.6721 62.8344 89.64 62.72L89.5773 62.9072C89.5582 62.964 89.5364 63.0162 89.5173 63.0588L88.8739 64.5134Z" fill="#AFB1B8"/>
<path d="M93.9288 62.2795C93.9614 62.295 93.9894 62.3169 94.0106 62.3434L96.3962 65.0417C96.3962 64.9991 96.3962 64.9564 96.3962 64.9161C96.3962 64.8759 96.3962 64.8356 96.3962 64.7977V62.2629H96.8843V65.8424H96.6116C96.5729 65.8434 96.5345 65.8361 96.4998 65.8211C96.4662 65.804 96.4365 65.7815 96.4126 65.7548L94.0297 63.0589C94.0323 63.0999 94.0323 63.141 94.0297 63.1821C94.0297 63.2223 94.0297 63.2579 94.0297 63.291V65.8424H93.5416V62.2629H93.8306C93.8644 62.2621 93.8979 62.2677 93.9288 62.2795Z" fill="#AFB1B8"/>
<path d="M100.903 64.4188V65.8402H100.358V64.4188L98.85 62.2631H99.3381C99.3801 62.2609 99.4217 62.2718 99.4553 62.2938C99.485 62.3168 99.5099 62.3441 99.5289 62.3744L100.472 63.765C100.51 63.8242 100.543 63.8787 100.57 63.9308C100.598 63.9829 100.62 64.0327 100.639 64.0824L100.71 63.9284C100.736 63.8721 100.767 63.8175 100.802 63.765L101.732 62.3649C101.751 62.337 101.775 62.3115 101.803 62.2891C101.835 62.2646 101.877 62.2518 101.92 62.2536H102.414L100.903 64.4188Z" fill="#AFB1B8"/>
<path d="M78.7314 56.2561C78.9686 56.2822 79.2085 56.3035 79.4512 56.3225C83.13 54.8926 86.2422 52.5523 88.3986 49.5942C90.5551 46.636 91.6602 43.1912 91.5758 39.6904L87.5216 36.1678C88.3459 39.8951 87.9603 43.7482 86.4079 47.2959C84.8555 50.8437 82.1975 53.9461 78.7314 56.2561Z" fill="#AFB1B8"/>
<path d="M77.2837 56.0923L77.3928 56.1112C81.0966 53.8094 83.9205 50.5951 85.4993 46.8839C87.078 43.1727 87.3389 39.1353 86.2483 35.2939L80.4737 30.2767C82.8094 34.4008 83.7495 39.0162 83.1848 43.5862C82.6201 48.1562 80.5737 52.493 77.2837 56.0923Z" fill="#AFB1B8"/>
<path d="M96.8679 43.8265C95.8868 47.6731 93.5041 51.1423 90.0735 53.7189C89.0716 54.4755 87.9909 55.1496 86.8454 55.7324C89.6389 55.019 92.2065 53.7578 94.3502 52.046C96.494 50.3341 98.1566 48.2174 99.21 45.859L96.8679 43.8265Z" fill="#AFB1B8"/>
<path d="M95.9491 43.2601L92.6146 40.3629C92.5509 43.666 91.4701 46.894 89.4846 49.7114C87.4991 52.5287 84.6814 54.8327 81.3243 56.3837H81.3406C82.0888 56.3835 82.8362 56.3447 83.5791 56.2676C86.7165 55.155 89.488 53.3849 91.6465 51.1152C93.8049 48.8455 95.2831 46.1469 95.9491 43.2601Z" fill="#AFB1B8"/>
<path d="M77.7663 28.1609L73.7883 24.7C70.2322 25.8939 67.1738 27.9928 65.0134 30.722C62.8529 33.4512 61.6912 36.6835 61.6801 39.9959V39.9959C61.6934 43.656 63.1113 47.2077 65.7093 50.0888C68.3073 52.9699 71.9371 55.016 76.0241 55.903C79.6725 52.041 81.8086 47.2687 82.1219 42.2798C82.4352 37.2908 80.9094 32.3449 77.7663 28.1609Z" fill="#AFB1B8"/>
<path d="M105.14 42.7273C105.126 38.3848 103.134 34.2238 99.5997 31.1532C96.0655 28.0826 91.2763 26.352 86.2783 26.3395C83.9688 26.3374 81.6789 26.7077 79.5248 27.4315L103.88 48.5926C104.714 46.7221 105.141 44.7333 105.14 42.7273Z" fill="#AFB1B8"/>
</svg>

<svg xmlns="http://www.w3.org/2000/svg" width="170" height="92" fill="none"><rect width="169" height="91" x=".5" y=".5" stroke="#AFB1B8" rx="3.5"/><path fill="#AFB1B8" d="M68.406 65.101c.016 0 .032.004.046.01a.122.122 0 0 1 .039.024l.218.208c-.17.169-.379.304-.614.396a2.39 2.39 0 0 1-.87.142c-.28.005-.558-.04-.817-.133a1.794 1.794 0 0 1-.616-.374 1.674 1.674 0 0 1-.398-.578 1.926 1.926 0 0 1-.14-.742 1.725 1.725 0 0 1 .573-1.322c.186-.163.409-.291.654-.377.269-.09.555-.135.843-.132a2.27 2.27 0 0 1 .782.12c.216.082.415.195.587.335l-.183.222a.177.177 0 0 1-.047.04.125.125 0 0 1-.073.017.177.177 0 0 1-.08-.023l-.097-.06-.137-.076a1.555 1.555 0 0 0-.43-.132 1.892 1.892 0 0 0-.325-.024 1.759 1.759 0 0 0-.605.1c-.18.063-.341.158-.474.28-.136.128-.241.28-.309.445a1.497 1.497 0 0 0-.111.587c-.004.203.034.406.111.597a1.3 1.3 0 0 0 .303.443c.125.12.28.215.453.275.178.064.369.097.561.095.112.001.223-.005.333-.019a1.316 1.316 0 0 0 .72-.306.171.171 0 0 1 .103-.038ZM74.704 64.054c.004.251-.046.5-.147.737a1.594 1.594 0 0 1-.41.572 1.888 1.888 0 0 1-.645.375 2.655 2.655 0 0 1-1.658 0 1.913 1.913 0 0 1-.64-.376 1.679 1.679 0 0 1-.415-.578 1.922 1.922 0 0 1 0-1.476c.093-.216.234-.413.415-.58.182-.159.4-.282.64-.363a2.61 2.61 0 0 1 1.658 0c.242.085.461.213.644.376.179.165.319.36.411.571.101.238.151.489.147.742Zm-.572 0a1.564 1.564 0 0 0-.104-.593 1.22 1.22 0 0 0-.752-.722 1.918 1.918 0 0 0-1.205 0 1.295 1.295 0 0 0-.461.28 1.191 1.191 0 0 0-.295.443 1.738 1.738 0 0 0 0 1.184 1.21 1.21 0 0 0 .756.72c.388.127.816.127 1.205 0 .175-.061.333-.156.46-.277.131-.129.23-.28.292-.443.073-.19.108-.391.104-.592ZM79.001 64.675l.058.132c.021-.047.04-.09.062-.132.021-.045.045-.088.071-.13l1.393-2.201c.028-.038.052-.062.08-.069a.373.373 0 0 1 .114-.012h.412v3.58h-.488V63.1a.974.974 0 0 1 0-.124L79.3 65.208a.203.203 0 0 1-.082.081.246.246 0 0 1-.12.03h-.079a.243.243 0 0 1-.12-.03.201.201 0 0 1-.081-.081l-1.443-2.246V65.835h-.471v-3.572h.411a.374.374 0 0 1 .115.012c.034.015.06.039.076.069l1.423 2.203c.028.04.052.083.071.128ZM84.244 64.497v1.34H83.7v-3.574h1.216c.23-.004.459.023.679.078.176.044.34.12.48.223a.92.92 0 0 1 .272.35c.065.146.096.302.093.458a.993.993 0 0 1-.395.815c-.14.107-.304.188-.483.236a2.3 2.3 0 0 1-.657.083l-.66-.01Zm0-.384h.66c.144.002.286-.017.423-.054a.924.924 0 0 0 .305-.154.686.686 0 0 0 .25-.538.604.604 0 0 0-.054-.291.688.688 0 0 0-.19-.244 1.172 1.172 0 0 0-.734-.192h-.66v1.473ZM91.573 65.842h-.43a.205.205 0 0 1-.12-.033.224.224 0 0 1-.072-.083l-.37-.864h-1.862l-.385.864a.196.196 0 0 1-.068.08.205.205 0 0 1-.123.036h-.43l1.635-3.58h.567l1.658 3.58Zm-2.7-1.329h1.539l-.65-1.457c-.049-.11-.09-.222-.122-.336l-.063.187a1.69 1.69 0 0 1-.06.152l-.643 1.454ZM93.929 62.28c.032.015.06.037.082.063l2.385 2.699v-2.779h.488v3.58h-.272a.265.265 0 0 1-.112-.022.298.298 0 0 1-.087-.066l-2.383-2.696a.974.974 0 0 1 0 .123v2.66h-.488v-3.58h.289c.033 0 .067.006.098.017ZM100.903 64.419v1.421h-.545V64.42l-1.508-2.156h.488a.196.196 0 0 1 .117.03c.03.024.055.051.074.081l.943 1.391c.038.06.071.114.098.166.028.052.05.102.069.151l.071-.154a1.21 1.21 0 0 1 .092-.163l.93-1.4a.35.35 0 0 1 .071-.076.181.181 0 0 1 .117-.035h.494l-1.511 2.165ZM78.731 56.256c.238.026.478.047.72.066 3.679-1.43 6.791-3.77 8.948-6.728 2.156-2.958 3.261-6.403 3.177-9.904l-4.054-3.522c.824 3.727.438 7.58-1.114 11.128s-4.21 6.65-7.677 8.96Z"/><path fill="#AFB1B8" d="m77.284 56.092.109.02c3.704-2.303 6.528-5.517 8.106-9.228 1.579-3.711 1.84-7.749.75-11.59l-5.775-5.017c2.335 4.124 3.275 8.74 2.71 13.31-.564 4.57-2.61 8.906-5.9 12.505ZM96.868 43.827c-.981 3.846-3.364 7.315-6.794 9.892a21.633 21.633 0 0 1-3.229 2.013c2.794-.713 5.362-1.974 7.505-3.686 2.144-1.712 3.807-3.829 4.86-6.187l-2.342-2.032Z"/><path fill="#AFB1B8" d="m95.95 43.26-3.335-2.897c-.064 3.303-1.145 6.531-3.13 9.348-1.986 2.818-4.804 5.122-8.16 6.673h.016c.748 0 1.495-.04 2.238-.116 3.138-1.113 5.909-2.883 8.068-5.153 2.158-2.27 3.636-4.968 4.302-7.855ZM77.766 28.16l-3.978-3.46c-3.556 1.194-6.614 3.293-8.775 6.022-2.16 2.73-3.322 5.962-3.333 9.274.013 3.66 1.431 7.212 4.03 10.093 2.597 2.88 6.227 4.927 10.314 5.814 3.648-3.862 5.785-8.634 6.098-13.623.313-4.99-1.213-9.935-4.356-14.12ZM105.14 42.727c-.014-4.342-2.006-8.503-5.54-11.574-3.534-3.07-8.324-4.801-13.322-4.813-2.31-.003-4.6.368-6.753 1.091l24.355 21.162a14.358 14.358 0 0 0 1.26-5.866Z"/></svg>
